src/assets/icons/lists-bold.svg

<svg width="20" height="21" viewBox="0 0 20 21" fill="none" xmlns="http://www.w3.org/2000/svg">
<path d="M17.75 0.768066H2.25C1.013 0.768066 0 1.78107 0 3.01807V18.5181C0 19.7551 1.013 20.7681 2.25 20.7681H17.75C18.987 20.7681 20 19.7551 20 18.5181V3.01807C20 1.78107 18.987 0.768066 17.75 0.768066ZM9 15.5181H5C4.586 15.5181 4.25 15.1821 4.25 14.7681C4.25 14.3541 4.586 14.0181 5 14.0181H9C9.414 14.0181 9.75 14.3541 9.75 14.7681C9.75 15.1821 9.414 15.5181 9 15.5181ZM15 11.5181H5C4.586 11.5181 4.25 11.1821 4.25 10.7681C4.25 10.3541 4.586 10.0181 5 10.0181H15C15.414 10.0181 15.75 10.3541 15.75 10.7681C15.75 11.1821 15.414 11.5181 15 11.5181ZM15 7.51807H5C4.586 7.51807 4.25 7.18207 4.25 6.76807C4.25 6.35407 4.586 6.01807 5 6.01807H15C15.414 6.01807 15.75 6.35407 15.75 6.76807C15.75 7.18207 15.414 7.51807 15 7.51807Z" fill="black"/>
</svg>

<svg width="20" height="21" fill="none" xmlns="http://www.w3.org/2000/svg"><path d="M17.75.768H2.25A2.257 2.257 0 0 0 0 3.018v15.5a2.257 2.257 0 0 0 2.25 2.25h15.5a2.257 2.257 0 0 0 2.25-2.25v-15.5a2.257 2.257 0 0 0-2.25-2.25zM9 15.518H5a.75.75 0 0 1 0-1.5h4a.75.75 0 0 1 0 1.5zm6-4H5a.75.75 0 0 1 0-1.5h10a.75.75 0 0 1 0 1.5zm0-4H5a.75.75 0 0 1 0-1.5h10a.75.75 0 0 1 0 1.5z" fill="#000"/></svg>
